vendor/craftcms/cms/src/icons/solid/block-brick.svg

<svg xmlns="http://www.w3.org/2000/svg" viewBox="0 0 448 512"><!--! Font Awesome Pro 6.7.2 by @fontawesome - https://fontawesome.com License - https://fontawesome.com/license (Commercial License) Copyright 2024 Fonticons, Inc. --><path d="M96 32l0 80 256 0 0-80L96 32zM64 112l0-80C28.7 32 0 60.7 0 96l0 16 64 0zM0 144l0 96 208 0 0-96L0 144zM0 368l64 0 0-96L0 272l0 96zm0 32l0 16c0 35.3 28.7 64 64 64l144 0 0-80L0 400zm240 0l0 80 144 0c35.3 0 64-28.7 64-64l0-16-208 0zm208-32l0-96-64 0 0 96 64 0zm-96 0l0-96L96 272l0 96 256 0zm96-224l-208 0 0 96 208 0 0-96zm0-32l0-16c0-35.3-28.7-64-64-64l0 80 64 0z"/></svg>

<svg xmlns="http://www.w3.org/2000/svg" viewBox="0 0 448 512"><!--! Font Awesome Pro 6.5.1 by @fontawesome - https://fontawesome.com License - https://fontawesome.com/license (Commercial License) Copyright 2023 Fonticons, Inc. --><path d="M96 32v80H352V32H96zM64 112V32C28.7 32 0 60.7 0 96v16H64zM0 144v96H208V144H0zM0 368H64V272H0v96zm0 32v16c0 35.3 28.7 64 64 64H208V400H0zm240 0v80H384c35.3 0 64-28.7 64-64V400H240zm208-32V272H384v96h64zm-96 0V272H96v96H352zm96-224H240v96H448V144zm0-32V96c0-35.3-28.7-64-64-64v80h64z"/></svg>
